X:37
T:Drowsy Maggie
M:4/4
L:1/8
K:E dorian
Q:1/2=58
"Em" E2 BE dEBE | {E/F/}E2 (BE) "D" AFED | "Em" E2 (BE) dEBA |1 "Em" ({B/d/}BA)(Bc) "D" dBAF :|
:|2 "Em" ({B/d/}BA)(Bc) "D" d2 "G" (Bc) |: "D" d2 (fd "A" cd)ec | "D" def(g af)ge | d2 (fd "A" cd)ec |
    "G" ({B/d/}BA)(Bc) dB"A"A(c | "D" d2) f(d "A" c)dec | "D" def(g af)ge |
afge fded |1 "G" ({B/d/}BA)(Bc) dB"A"Ac :|2 "G" ({B/d/}BA)(Bc) "D" dBAF || "Em" E4 |]
N:Annette Kowalik

